X:190
T:Black Ey'd Susan. JC.192
R:Air
C:words by John Gay, tune by R Leveridge
S:John Clare,Poet,Helpstone (1793-1864)
N:Song text exists. See Deacon.
O:England
A:Northamptonshire
Z:vmp.P. Headford
M:3/4
L:1/4
Q:1/4=120
K:G
Bef|\
(gf)e|e^d/e/f|c3|cBA|(GF)E|!
(G3/4A/4)Bf|\
(gf)e|(g3/4a/4 b)a{^g/4}|b3|!
bag|d2g|{b/}(ag)f|{e/4f/4}g3|\
bag|(ag)f|!
gfe|^def|B3|\
Gc^c|(d^c)B|!Bef|(gf)b|B2e|(fe)^d|e3|]

